src/images/svg/academy-logo.svg

<svg width="100" height="23" viewBox="0 0 100 23" fill="none" xmlns="http://www.w3.org/2000/svg">
<path d="M12.72 18L11.04 13.056H4.272L2.592 18H0.552L6.408 1.248H8.976L14.832 18H12.72ZM7.704 3.12H7.584L4.752 11.28H10.536L7.704 3.12ZM22.023 18.288C21.159 18.288 20.383 18.136 19.695 17.832C19.007 17.528 18.423 17.096 17.943 16.536C17.479 15.976 17.119 15.296 16.863 14.496C16.623 13.696 16.503 12.8 16.503 11.808C16.503 10.816 16.623 9.92 16.863 9.12C17.119 8.32 17.479 7.64 17.943 7.08C18.423 6.52 19.007 6.088 19.695 5.784C20.383 5.48 21.159 5.328 22.023 5.328C23.255 5.328 24.239 5.6 24.975 6.144C25.727 6.672 26.287 7.368 26.655 8.232L25.047 9.048C24.823 8.408 24.455 7.912 23.943 7.56C23.431 7.208 22.791 7.032 22.023 7.032C21.447 7.032 20.943 7.128 20.511 7.32C20.079 7.496 19.719 7.752 19.431 8.088C19.143 8.408 18.927 8.8 18.783 9.264C18.639 9.712 18.567 10.208 18.567 10.752V12.864C18.567 13.952 18.855 14.848 19.431 15.552C20.023 16.24 20.887 16.584 22.023 16.584C23.575 16.584 24.695 15.864 25.383 14.424L26.775 15.36C26.375 16.256 25.775 16.968 24.975 17.496C24.191 18.024 23.207 18.288 22.023 18.288ZM38.4853 18C37.7653 18 37.2453 17.808 36.9253 17.424C36.6213 17.04 36.4293 16.56 36.3493 15.984H36.2293C35.9573 16.752 35.5093 17.328 34.8853 17.712C34.2613 18.096 33.5173 18.288 32.6533 18.288C31.3413 18.288 30.3173 17.952 29.5813 17.28C28.8613 16.608 28.5013 15.696 28.5013 14.544C28.5013 13.376 28.9253 12.48 29.7733 11.856C30.6373 11.232 31.9733 10.92 33.7813 10.92H36.2293V9.696C36.2293 8.816 35.9893 8.144 35.5093 7.68C35.0293 7.216 34.2933 6.984 33.3013 6.984C32.5493 6.984 31.9173 7.152 31.4053 7.488C30.9093 7.824 30.4933 8.272 30.1573 8.832L29.0053 7.752C29.3413 7.08 29.8773 6.512 30.6133 6.048C31.3493 5.568 32.2773 5.328 33.3973 5.328C34.9013 5.328 36.0693 5.696 36.9013 6.432C37.7333 7.168 38.1493 8.192 38.1493 9.504V16.32H39.5653V18H38.4853ZM32.9653 16.656C33.4453 16.656 33.8853 16.6 34.2853 16.488C34.6853 16.376 35.0293 16.216 35.3173 16.008C35.6053 15.8 35.8293 15.56 35.9893 15.288C36.1493 15.016 36.2293 14.72 36.2293 14.4V12.36H33.6853C32.5813 12.36 31.7733 12.52 31.2613 12.84C30.7653 13.16 30.5173 13.624 30.5173 14.232V14.736C30.5173 15.344 30.7333 15.816 31.1653 16.152C31.6133 16.488 32.2133 16.656 32.9653 16.656ZM50.2256 15.984H50.1296C49.3776 17.52 48.1696 18.288 46.5056 18.288C45.7376 18.288 45.0416 18.136 44.4176 17.832C43.7936 17.528 43.2576 17.096 42.8096 16.536C42.3776 15.976 42.0416 15.296 41.8016 14.496C41.5776 13.696 41.4656 12.8 41.4656 11.808C41.4656 10.816 41.5776 9.92 41.8016 9.12C42.0416 8.32 42.3776 7.64 42.8096 7.08C43.2576 6.52 43.7936 6.088 44.4176 5.784C45.0416 5.48 45.7376 5.328 46.5056 5.328C47.3696 5.328 48.1056 5.52 48.7136 5.904C49.3376 6.272 49.8096 6.848 50.1296 7.632H50.2256V0.24H52.1456V18H50.2256V15.984ZM47.0336 16.56C47.4656 16.56 47.8736 16.504 48.2576 16.392C48.6576 16.28 49.0016 16.12 49.2896 15.912C49.5776 15.688 49.8016 15.424 49.9616 15.12C50.1376 14.8 50.2256 14.44 50.2256 14.04V9.432C50.2256 9.096 50.1376 8.784 49.9616 8.496C49.8016 8.192 49.5776 7.936 49.2896 7.728C49.0016 7.52 48.6576 7.36 48.2576 7.248C47.8736 7.12 47.4656 7.056 47.0336 7.056C45.9456 7.056 45.0896 7.4 44.4656 8.088C43.8416 8.76 43.5296 9.648 43.5296 10.752V12.864C43.5296 13.968 43.8416 14.864 44.4656 15.552C45.0896 16.224 45.9456 16.56 47.0336 16.56ZM60.8835 18.288C60.0355 18.288 59.2675 18.136 58.5795 17.832C57.9075 17.528 57.3235 17.096 56.8275 16.536C56.3475 15.96 55.9715 15.28 55.6995 14.496C55.4435 13.696 55.3155 12.8 55.3155 11.808C55.3155 10.832 55.4435 9.944 55.6995 9.144C55.9715 8.344 56.3475 7.664 56.8275 7.104C57.3235 6.528 57.9075 6.088 58.5795 5.784C59.2675 5.48 60.0355 5.328 60.8835 5.328C61.7155 5.328 62.4595 5.48 63.1155 5.784C63.7715 6.088 64.3315 6.512 64.7955 7.056C65.2595 7.584 65.6115 8.216 65.8515 8.952C66.1075 9.688 66.2355 10.496 66.2355 11.376V12.288H57.3315V12.864C57.3315 13.392 57.4115 13.888 57.5715 14.352C57.7475 14.8 57.9875 15.192 58.2915 15.528C58.6115 15.864 58.9955 16.128 59.4435 16.32C59.9075 16.512 60.4275 16.608 61.0035 16.608C61.7875 16.608 62.4675 16.424 63.0435 16.056C63.6355 15.688 64.0915 15.16 64.4115 14.472L65.7795 15.456C65.3795 16.304 64.7555 16.992 63.9075 17.52C63.0595 18.032 62.0515 18.288 60.8835 18.288ZM60.8835 6.936C60.3555 6.936 59.8755 7.032 59.4435 7.224C59.0115 7.4 58.6355 7.656 58.3155 7.992C58.0115 8.328 57.7715 8.728 57.5955 9.192C57.4195 9.64 57.3315 10.136 57.3315 10.68V10.848H64.1715V10.584C64.1715 9.48 63.8675 8.6 63.2595 7.944C62.6675 7.272 61.8755 6.936 60.8835 6.936ZM69.3994 18V5.616H71.3194V7.632H71.4154C71.5594 7.312 71.7194 7.016 71.8954 6.744C72.0874 6.456 72.3114 6.208 72.5674 6C72.8394 5.792 73.1514 5.632 73.5034 5.52C73.8554 5.392 74.2714 5.328 74.7514 5.328C75.5674 5.328 76.3194 5.528 77.0074 5.928C77.6954 6.312 78.2074 6.952 78.5434 7.848H78.5914C78.8154 7.176 79.2314 6.592 79.8394 6.096C80.4634 5.584 81.3034 5.328 82.3594 5.328C83.6234 5.328 84.6074 5.744 85.3114 6.576C86.0314 7.392 86.3914 8.552 86.3914 10.056V18H84.4714V10.392C84.4714 9.288 84.2554 8.456 83.8234 7.896C83.3914 7.336 82.7034 7.056 81.7594 7.056C81.3754 7.056 81.0074 7.104 80.6554 7.2C80.3194 7.296 80.0154 7.44 79.7434 7.632C79.4714 7.824 79.2554 8.072 79.0954 8.376C78.9354 8.664 78.8554 9.008 78.8554 9.408V18H76.9354V10.392C76.9354 9.288 76.7194 8.456 76.2874 7.896C75.8554 7.336 75.1834 7.056 74.2714 7.056C73.8874 7.056 73.5194 7.104 73.1674 7.2C72.8154 7.296 72.5034 7.44 72.2314 7.632C71.9594 7.824 71.7354 8.072 71.5594 8.376C71.3994 8.664 71.3194 9.008 71.3194 9.408V18H69.3994ZM97.797 5.616H99.693L94.149 20.88C94.005 21.248 93.861 21.552 93.717 21.792C93.573 22.048 93.397 22.248 93.189 22.392C92.981 22.536 92.717 22.64 92.397 22.704C92.093 22.768 91.717 22.8 91.269 22.8H90.285V21.12H92.229L93.165 18.48L88.533 5.616H90.453L93.429 14.04L94.005 16.056H94.125L94.797 14.04L97.797 5.616Z" fill="white"/>
</svg>

<svg width="100" height="23" fill="none" xmlns="http://www.w3.org/2000/svg"><path d="m12.72 18-1.68-4.944H4.272L2.592 18H.552L6.408 1.248h2.568L14.832 18H12.72ZM7.704 3.12h-.12l-2.832 8.16h5.784L7.704 3.12Zm14.319 15.168c-.864 0-1.64-.152-2.328-.456a4.866 4.866 0 0 1-1.752-1.296c-.464-.56-.824-1.24-1.08-2.04-.24-.8-.36-1.696-.36-2.688 0-.992.12-1.888.36-2.688.256-.8.616-1.48 1.08-2.04a4.866 4.866 0 0 1 1.752-1.296c.688-.304 1.464-.456 2.328-.456 1.232 0 2.216.272 2.952.816a4.791 4.791 0 0 1 1.68 2.088l-1.608.816c-.224-.64-.592-1.136-1.104-1.488-.512-.352-1.152-.528-1.92-.528-.576 0-1.08.096-1.512.288a2.777 2.777 0 0 0-1.08.768c-.288.32-.504.712-.648 1.176a4.844 4.844 0 0 0-.216 1.488v2.112c0 1.088.288 1.984.864 2.688.592.688 1.456 1.032 2.592 1.032 1.552 0 2.672-.72 3.36-2.16l1.392.936c-.4.896-1 1.608-1.8 2.136-.784.528-1.768.792-2.952.792ZM38.485 18c-.72 0-1.24-.192-1.56-.576-.304-.384-.496-.864-.576-1.44h-.12c-.272.768-.72 1.344-1.344 1.728-.624.384-1.368.576-2.232.576-1.312 0-2.336-.336-3.072-1.008-.72-.672-1.08-1.584-1.08-2.736 0-1.168.424-2.064 1.272-2.688.864-.624 2.2-.936 4.008-.936h2.448V9.696c0-.88-.24-1.552-.72-2.016-.48-.464-1.216-.696-2.208-.696-.752 0-1.384.168-1.896.504a4.206 4.206 0 0 0-1.248 1.344l-1.152-1.08c.336-.672.872-1.24 1.608-1.704.736-.48 1.664-.72 2.784-.72 1.504 0 2.672.368 3.504 1.104.832.736 1.248 1.76 1.248 3.072v6.816h1.416V18h-1.08Zm-5.52-1.344c.48 0 .92-.056 1.32-.168.4-.112.744-.272 1.032-.48a2.38 2.38 0 0 0 .672-.72c.16-.272.24-.568.24-.888v-2.04h-2.544c-1.104 0-1.912.16-2.424.48-.496.32-.744.784-.744 1.392v.504c0 .608.216 1.08.648 1.416.448.336 1.048.504 1.8.504Zm17.26-.672h-.095c-.752 1.536-1.96 2.304-3.624 2.304-.768 0-1.464-.152-2.088-.456a4.648 4.648 0 0 1-1.608-1.296c-.432-.56-.768-1.24-1.008-2.04-.224-.8-.336-1.696-.336-2.688 0-.992.112-1.888.336-2.688.24-.8.576-1.48 1.008-2.04.448-.56.984-.992 1.608-1.296.624-.304 1.32-.456 2.088-.456.864 0 1.6.192 2.208.576.624.368 1.096.944 1.416 1.728h.096V.24h1.92V18h-1.92v-2.016Zm-3.191.576c.432 0 .84-.056 1.224-.168.4-.112.744-.272 1.032-.48.288-.224.512-.488.672-.792.176-.32.264-.68.264-1.08V9.432c0-.336-.088-.648-.264-.936a2.206 2.206 0 0 0-.672-.768 3.236 3.236 0 0 0-1.032-.48 3.846 3.846 0 0 0-1.224-.192c-1.088 0-1.944.344-2.568 1.032-.624.672-.936 1.56-.936 2.664v2.112c0 1.104.312 2 .936 2.688.624.672 1.48 1.008 2.568 1.008Zm13.85 1.728c-.849 0-1.617-.152-2.304-.456a5.157 5.157 0 0 1-1.752-1.296 6.456 6.456 0 0 1-1.129-2.04c-.255-.8-.383-1.696-.383-2.688 0-.976.127-1.864.383-2.664.273-.8.648-1.48 1.129-2.04a5.024 5.024 0 0 1 1.752-1.32c.688-.304 1.456-.456 2.303-.456.832 0 1.576.152 2.232.456a4.875 4.875 0 0 1 1.68 1.272 5.34 5.34 0 0 1 1.056 1.896c.257.736.385 1.544.385 2.424v.912H57.33v.576c0 .528.08 1.024.24 1.488.177.448.416.84.72 1.176.32.336.705.6 1.153.792.463.192.983.288 1.56.288.784 0 1.464-.184 2.04-.552.592-.368 1.047-.896 1.368-1.584l1.367.984c-.4.848-1.023 1.536-1.871 2.064-.849.512-1.857.768-3.025.768Zm0-11.352c-.529 0-1.008.096-1.44.288a3.215 3.215 0 0 0-1.129.768 3.748 3.748 0 0 0-.72 1.2 4.037 4.037 0 0 0-.264 1.488v.168h6.84v-.264c0-1.104-.304-1.984-.912-2.64-.592-.672-1.383-1.008-2.376-1.008ZM69.398 18V5.616h1.92v2.016h.096a6.67 6.67 0 0 1 .48-.888c.192-.288.416-.536.672-.744.272-.208.584-.368.936-.48.352-.128.768-.192 1.248-.192.816 0 1.568.2 2.256.6.688.384 1.2 1.024 1.536 1.92h.048c.224-.672.64-1.256 1.248-1.752.624-.512 1.464-.768 2.52-.768 1.264 0 2.248.416 2.952 1.248.72.816 1.08 1.976 1.08 3.48V18h-1.92v-7.608c0-1.104-.216-1.936-.648-2.496-.432-.56-1.12-.84-2.064-.84-.384 0-.752.048-1.104.144-.336.096-.64.24-.912.432s-.488.44-.648.744c-.16.288-.24.632-.24 1.032V18h-1.92v-7.608c0-1.104-.216-1.936-.648-2.496-.432-.56-1.104-.84-2.016-.84-.384 0-.752.048-1.104.144-.352.096-.664.24-.936.432s-.496.44-.672.744c-.16.288-.24.632-.24 1.032V18H69.4ZM97.797 5.616h1.896L94.149 20.88a6.16 6.16 0 0 1-.432.912c-.144.256-.32.456-.528.6a2.104 2.104 0 0 1-.792.312 5.59 5.59 0 0 1-1.128.096h-.984v-1.68h1.944l.936-2.64-4.632-12.864h1.92l2.976 8.424.576 2.016h.12l.672-2.016 3-8.424Z" fill="#fff"/></svg>
